X:99
T:Connaughtman's Rambles, The
R:jig
Z:Seattle
Z:From O'Neill's
M:6/8
K:D
G|FAA dAA|BAB dAG|FAA dfe|dBA BAG|
FAA dAA|BAB def|gfe f2e|dBA B2:|
e|fbb faa|fef d2e|fbb faa|fed ~e3|
fbb afe|dBc def|gfe f2e|dBA B2:|
